icons/svg/shopping/health_food.svg

<?xml version="1.0" encoding="UTF-8" standalone="no"?>
<!-- Created with Inkscape (http://www.inkscape.org/) -->

<svg
   xmlns:dc="http://purl.org/dc/elements/1.1/"
   xmlns:cc="http://creativecommons.org/ns#"
   xmlns:rdf="http://www.w3.org/1999/02/22-rdf-syntax-ns#"
   xmlns:svg="http://www.w3.org/2000/svg"
   xmlns="http://www.w3.org/2000/svg"
   xmlns:sodipodi="http://sodipodi.sourceforge.net/DTD/sodipodi-0.dtd"
   xmlns:inkscape="http://www.inkscape.org/namespaces/inkscape"
   version="1.0"
   width="580"
   height="580"
   id="svg2"
   sodipodi:version="0.32"
   inkscape:version="0.92.3 (2405546, 2018-03-11)"
   sodipodi:docname="health_food.svg"
   inkscape:output_extension="org.inkscape.output.svg.inkscape">
  <metadata
     id="metadata10">
    <rdf:RDF>
      <cc:Work
         rdf:about="">
        <dc:format>image/svg+xml</dc:format>
        <dc:type
           rdf:resource="http://purl.org/dc/dcmitype/StillImage" />
        <cc:license
           rdf:resource="http://web.resource.org/cc/PublicDomain" />
        <dc:language>en</dc:language>
        <dc:title />
      </cc:Work>
    </rdf:RDF>
  </metadata>
  <sodipodi:namedview
     inkscape:window-height="1006"
     inkscape:window-width="1920"
     inkscape:pageshadow="2"
     inkscape:pageopacity="0.0"
     guidetolerance="10.0"
     gridtolerance="10.0"
     objecttolerance="10.0"
     borderopacity="1.0"
     bordercolor="#666666"
     pagecolor="#ffffff"
     id="base"
     showgrid="false"
     inkscape:zoom="0.7071068"
     inkscape:cx="26.50065"
     inkscape:cy="340.89997"
     inkscape:window-x="1920"
     inkscape:window-y="0"
     inkscape:current-layer="svg2"
     inkscape:window-maximized="1" />
  <defs
     id="defs4">
    <clipPath
       id="clipoutline2"
       clipPathUnits="userSpaceOnUse">
      <path
         d="M 55.8,12 L 56.56,12.16 C 65.4,9.22 85.24,20.8 80.82,31.12 C 79.7,32.74 79.89,35.62 81.24,37.43 L 56.43,62.25 C 55.04,60.86 51.95,60.89 50.53,62.25 L 9.5,101.63 C 5.76,105.22 8.7,108.27 10.28,109.88 L 17.64,117.24 C 19.25,118.84 23.5,121 26.52,117.8 L 65.24,76.99 C 66.59,75.57 66.6,72.52 65.24,71.12 C 65.24,71.12 65.25,71.1 65.24,71.1 L 90.15,46.2 C 92.78,48.57 95.263827,48.774854 97.62,48.13 C 102.17057,46.884568 104.70725,51.336643 107.43,54.59 L 106.2,55.8 C 104.38,57.64 104.55,60.74 106.59,62.78 C 108.63,64.82 111.74,64.99 113.56,63.17 L 121.7,55.04 C 123.52,53.2 123.35,50.1 121.3,48.07 C 119.46,46.22 116.79,45.98 114.93,47.3 C 109.35,41.04 112.28,40.1 104.92,31.95 L 91.13,17.86 C 81.2,8.12 68.3,8.13 55.8,12 z"
         id="outline2" />
    </clipPath>
    <clipPath
       id="clipoutline1"
       clipPathUnits="userSpaceOnUse">
      <path
         d="M 22.42,17.2 L 35.38,30.15 L 32.88,38.93 L 24.1,41.43 L 11.14,28.47 L 5.28,34.33 L 20.17,55.79 L 37.73,52.45 L 99.36,118.07 C 108.8,127.58 121.53,113.32 112.7,105.2 L 46.85,42.92 L 50.86,25.16 L 28.72,10.89 L 22.42,17.2 z M 103.48,109.17 C 105.16,107.49 107.88,107.49 109.56,109.17 C 111.24,110.85 111.24,113.57 109.56,115.25 C 107.88,116.92 105.16,116.92 103.48,115.25 C 101.8,113.57 101.8,110.85 103.48,109.17 z"
         id="outline1" />
    </clipPath>
    <inkscape:perspective
       sodipodi:type="inkscape:persp3d"
       inkscape:vp_x="0 : 290 : 1"
       inkscape:vp_y="0 : 1000 : 0"
       inkscape:vp_z="580 : 290 : 1"
       inkscape:persp3d-origin="290 : 193.33333 : 1"
       id="perspective12" />
    <style
       type="text/css"
       id="style6">
   
    .fil0 {fill:#EF7900}
   
  </style>
    <inkscape:perspective
       id="perspective6807"
       inkscape:persp3d-origin="29.116032 : 19.410688 : 1"
       inkscape:vp_z="58.232063 : 29.116032 : 1"
       inkscape:vp_y="0 : 1000 : 0"
       inkscape:vp_x="0 : 29.116032 : 1"
       sodipodi:type="inkscape:persp3d" />
    <inkscape:perspective
       id="perspective6954"
       inkscape:persp3d-origin="290 : 193.33333 : 1"
       inkscape:vp_z="580 : 290 : 1"
       inkscape:vp_y="0 : 1000 : 0"
       inkscape:vp_x="0 : 290 : 1"
       sodipodi:type="inkscape:persp3d" />
    <marker
       viewBox="0 0 10 10"
       refY="5"
       refX="10"
       orient="auto"
       markerWidth="4"
       markerUnits="strokeWidth"
       markerHeight="3"
       id="ArrowStart">
      <path
         id="path2295"
         d="M 10 0 L 0 5 L 10 10 z" />
    </marker>
    <marker
       viewBox="0 0 10 10"
       refY="5"
       refX="0"
       orient="auto"
       markerWidth="4"
       markerUnits="strokeWidth"
       markerHeight="3"
       id="ArrowEnd">
      <path
         id="path2292"
         d="M 0 0 L 10 5 L 0 10 z" />
    </marker>
    <inkscape:perspective
       id="perspective7597"
       inkscape:persp3d-origin="178.5405 : 158.483 : 1"
       inkscape:vp_z="357.08099 : 237.7245 : 1"
       inkscape:vp_y="0 : 1000 : 0"
       inkscape:vp_x="0 : 237.7245 : 1"
       sodipodi:type="inkscape:persp3d" />
  </defs>
  <g
     id="g1327"
     transform="translate(0.5,-0.5)">
    <path
       d="M 66.275,1.768 C 24.94,1.768 1.704,23.139 1.704,66.804 l 0,450.123 c 0,40.844 20.894,62.229 62.192,62.229 l 452.024,0 c 41.307,0 62.229,-20.316 62.229,-62.229 l 0,-450.123 c 0,-42.601 -20.922,-65.036 -63.522,-65.036 -0.003,0 -448.494,-0.143 -448.352,0 z"
       style="fill:#111111;stroke:#eeeeee;stroke-width:3.40799999"
       id="path1329"
       inkscape:connector-curvature="0" />
  </g>
  <g
     id="g2319"
     transform="translate(879.29128,36.805122)">
    <path
       id="path2323"
       style="fill:#ffffff;stroke:none"
       d=""
       inkscape:connector-curvature="0" />
  </g>
  <g
     id="g2325"
     transform="translate(879.29128,36.805122)">
    <path
       id="path2329"
       style="fill:#ffffff;stroke:none"
       d=""
       inkscape:connector-curvature="0" />
  </g>
  <path
     d="m 190.88786,368.602 c 37.642,-17.466 51.389,-39.928 51.389,-99.574 l -9.781,-202.814 c 0,-3.875 -3.142,-7.017 -7.018,-7.017 h -4.607 c -3.873,0 -7.016,3.141 -7.016,7.017 l 3.26,202.814 h -20.259 l -5.132,-204.789 c 0,-3.875 -3.142,-7.017 -7.018,-7.017 h -5.995 c -3.874,0 -7.016,3.142 -7.016,7.017 l 2.775,204.789 h -25.137 l 2.775,-204.789 c 0,-3.875 -3.142,-7.017 -7.017,-7.017 h -5.996 c -3.875,0 -7.016,3.142 -7.016,7.017 l -5.132,204.789 h -19.835 l 3.26,-202.789 c 0,-3.875 -3.142,-7.017 -7.017,-7.017 h -4.606 c -3.875,0 -7.018,3.142 -7.018,7.017 l -10.174,202.789 c 0,59.646 13.715,82.108 51.356,99.574 l -7.791,146.545 h 73.554 z"
     style="fill:#ffffff"
     id="path2112"
     inkscape:connector-curvature="0" />
  <path
     style="fill:#ffffff;fill-opacity:1;fill-rule:evenodd;stroke:none;stroke-width:1px;stroke-linecap:butt;stroke-linejoin:miter;stroke-opacity:1"
     d="m 385.41421,33.757359 c 0,0 29,66 -11,151.000001 -15.94324,33.87939 -44.29097,84.83001 -30,146 8.19638,35.08315 35.83426,49.69987 63.49609,54.49805 4.0376,-44.98205 13.2728,-69.69432 17.3711,-102.27149 4.38113,-34.82549 10.48488,-53.30921 2.71679,-125.74414 -1.55429,-9.34836 -4.26213,-38.02205 -11.29101,-69.697261 16.29699,26.250311 23.5474,65.059611 24.54101,72.292961 11.0634,72.88028 11.47163,78.74869 9.79883,125.89258 -1.23518,34.81092 -9.37392,58.83999 -13.18554,101.34375 13.82091,-0.58225 25.44245,-2.94782 31.55273,-5.31445 17.0386,-6.59937 79.79815,-41.04856 30,-194 -42,-128.999998 -114,-154.000001 -114,-154.000001 z m 52.44727,353.314451 c -9.31879,0.39259 -19.63086,-0.0263 -29.95118,-1.8164 -0.27865,3.10447 -0.536,6.29661 -0.76171,9.60351 -4.67859,68.54609 21.14257,123.97852 21.14257,123.97852 3.4226,7.60556 12.39178,10.95872 19.96485,7.46484 7.57307,-3.49389 10.84221,-12.49328 7.27734,-20.0332 0,0 -22.54795,-49.40233 -18.45508,-109.36719 0.23181,-3.39624 0.49828,-6.65282 0.78321,-9.83008 z"
     id="path869"
     inkscape:connector-curvature="0" />
</svg>

<svg width="580" height="580" viewBox="0 0 580 580" fill="none" xmlns="http://www.w3.org/2000/svg">
<g clip-path="url(#clip0)">
<path d="M66.7751 1.26863C25.4401 1.26863 2.2041 22.6396 2.2041 66.3046V516.428C2.2041 557.272 23.0981 578.657 64.3961 578.657H516.42C557.727 578.657 578.649 558.341 578.649 516.428V66.3046C578.649 23.7036 557.727 1.26863 515.127 1.26863C515.124 1.26863 66.6331 1.12563 66.7751 1.26863V1.26863Z" fill="#111111" stroke="#EEEEEE" stroke-width="3.408"/>
<path d="M190.888 368.603C228.53 351.137 242.277 328.675 242.277 269.029L232.496 66.2147C232.496 62.3397 229.354 59.1977 225.478 59.1977H220.871C216.998 59.1977 213.855 62.3387 213.855 66.2147L217.115 269.029H196.856L191.724 64.2397C191.724 60.3647 188.582 57.2227 184.706 57.2227H178.711C174.837 57.2227 171.695 60.3647 171.695 64.2397L174.47 269.029H149.333L152.108 64.2397C152.108 60.3647 148.966 57.2227 145.091 57.2227H139.095C135.22 57.2227 132.079 60.3647 132.079 64.2397L126.947 269.029H107.112L110.372 66.2397C110.372 62.3647 107.23 59.2227 103.355 59.2227H98.7486C94.8736 59.2227 91.7306 62.3647 91.7306 66.2397L81.5566 269.029C81.5566 328.675 95.2716 351.137 132.913 368.603L125.122 515.148H198.676L190.888 368.603Z" fill="white"/>
<path fill-rule="evenodd" clip-rule="evenodd" d="M385.414 33.7578C385.414 33.7578 414.414 99.7578 374.414 184.758C358.471 218.637 330.123 269.588 344.414 330.758C352.61 365.841 380.248 380.458 407.91 385.256C411.948 340.274 421.183 315.562 425.281 282.984C429.662 248.159 435.766 229.675 427.998 157.24C426.444 147.892 423.736 119.218 416.707 87.543C433.004 113.793 440.254 152.603 441.248 159.836C452.311 232.716 452.72 238.585 451.047 285.729C449.812 320.539 441.673 344.569 437.861 387.072C451.682 386.49 463.304 384.124 469.414 381.758C486.453 375.158 549.212 340.709 499.414 187.758C457.414 58.7578 385.414 33.7578 385.414 33.7578V33.7578ZM437.861 387.072C428.543 387.465 418.23 387.046 407.91 385.256C407.631 388.36 407.374 391.552 407.148 394.859C402.47 463.405 428.291 518.838 428.291 518.838C431.714 526.443 440.683 529.797 448.256 526.303C455.829 522.809 459.098 513.809 455.533 506.27C455.533 506.27 432.985 456.867 437.078 396.902C437.31 393.506 437.576 390.25 437.861 387.072V387.072Z" fill="white"/>
</g>
<defs>
<clipPath id="clip0">
<path d="M0 0H580V580H0V0Z" fill="white"/>
</clipPath>
</defs>
</svg>
